pix_core/i/bulk_edit.svg

<svg fill="none" preserveAspectRatio="xMinYMid meet" viewBox="0 0 16 17" xmlns="http://www.w3.org/2000/svg"><path clip-rule="evenodd" d="m0 2.833c0-1.55644 1.26174-2.8181837 2.81818-2.8181837h3.18182c.55228 0 1 .4477157 1 1.0000037 0 .55228-.44772 1-1 1h-3.18182c-.45187 0-.81818.36631-.81818.81818v6.36363c0 .45187.36631.81817.81818.81817h6.36364c.45187 0 .81818-.3663.81818-.81817v-3.18181c0-.55229.4477-1 1-1s1 .44771 1 1v3.18181c0 1.55647-1.2617 2.81817-2.81818 2.81817h-6.36364c-1.55644 0-2.81818-1.2617-2.81818-2.81817zm13.7162 1.06358c.3922-.38885 1.0253-.38614 1.4142.00605.5365.54109.8696 1.28871.8696 2.11219v5.99998c0 2.2092-1.7909 4-4 4h-6.00002c-.82353 0-1.57119-.3331-2.11229-.8697-.39217-.3888-.39485-1.022-.00599-1.4142.38887-.3921 1.02203-.3948 1.41421-.006.18178.1803.42915.2899.70407.2899h6.00002c1.1045 0 2-.8954 2-2v-5.99998c0-.2749-.1096-.52226-.2899-.70404-.3888-.39219-.3861-1.02535.0061-1.4142zm-2.6195-3.588279c-.391-.3913129-1.0322-.3913129-1.42326 0l-.75075.751319 2.03331 2.03483.7507-.75132c.3911-.39132.3911-1.03307 0-1.424381zm-4.14475 6.793189 3.64425-3.64703-2.03325-2.03483-3.64429 3.64703c-.15641.15653-.28153.36001-.3441.57915l-.56306 1.89395c-.03128.12522 0 .26609.10948.36001.09385.10957.23461.14087.35974.09391l1.89253-.54783c.21897-.06261.4223-.18783.5787-.34436z" fill="#fff" fill-rule="evenodd"/></svg>

<svg viewBox="0 0 16 17" fill="none" xmlns="http://www.w3.org/2000/svg" preserveAspectRatio="xMinYMid meet">
<path fill-rule="evenodd" clip-rule="evenodd" d="M0 2.833C0 1.27656 1.26174 0.0148163 2.81818 0.0148163H6C6.55228 0.0148163 7 0.462532 7 1.01482C7 1.5671 6.55228 2.01482 6 2.01482H2.81818C2.36631 2.01482 2 2.38113 2 2.833V9.19663C2 9.6485 2.36631 10.0148 2.81818 10.0148H9.18182C9.63369 10.0148 10 9.6485 10 9.19663V6.01482C10 5.46253 10.4477 5.01482 11 5.01482C11.5523 5.01482 12 5.46253 12 6.01482V9.19663C12 10.7531 10.7383 12.0148 9.18182 12.0148H2.81818C1.26174 12.0148 0 10.7531 0 9.19663V2.833ZM13.7162 3.89658C14.1084 3.50773 14.7415 3.51044 15.1304 3.90263C15.6669 4.44372 16 5.19134 16 6.01482V12.0148C16 14.224 14.2091 16.0148 12 16.0148H5.99998C5.17645 16.0148 4.42879 15.6817 3.88769 15.1451C3.49552 14.7563 3.49284 14.1231 3.8817 13.7309C4.27057 13.3388 4.90373 13.3361 5.29591 13.7249C5.47769 13.9052 5.72506 14.0148 5.99998 14.0148H12C13.1045 14.0148 14 13.1194 14 12.0148V6.01482C14 5.73992 13.8904 5.49256 13.7101 5.31078C13.3213 4.91859 13.324 4.28543 13.7162 3.89658ZM11.0967 0.308301C10.7057 -0.0830119 10.0645 -0.0830119 9.67344 0.308301L8.92269 1.05962L10.956 3.09445L11.7067 2.34313C12.0978 1.95181 12.0978 1.31006 11.7067 0.918749L11.0967 0.308301ZM6.95195 7.10149L10.5962 3.45446L8.56295 1.41963L4.91866 5.06666C4.76225 5.22319 4.63713 5.42667 4.57456 5.64581L4.0115 7.53976C3.98022 7.66498 4.0115 7.80585 4.12098 7.89977C4.21483 8.00934 4.35559 8.04064 4.48072 7.99368L6.37325 7.44585C6.59222 7.38324 6.79555 7.25802 6.95195 7.10149Z" fill="#fff"/>
</svg>
